X:1
T:Title
%%score { 1 | ( 2 3 ) }
L:1/8
Q:1/4=100
M:6/8
K:Eb
V:1 treble nm="Grand Piano"
V:2 bass 
V:3 bass 
V:1
 .[GB]3 .[GB]3 | [_G=A][=GB][_Ac] .[GB]3 | [DFB][DF][DF] [DF][EG][FA] | [EG]6 | %4
w: T.~Martin~Towne *||||
 [GB][GB][GB] [GB][GB][GB] | [_G=A]B[E_Ac] .[E=GB]3 | [CEF][CEc][CEB] [B,DA][A,DF][B,DG] | E6 | %8
w: ||||
 .E3 .A3 | .c3 edc | .B3 [B,GB][B,FA][B,EG] | [B,DF]6 | .[B,DF]3 .[DFB]3 | .d3 fed | %14
w: ||||||
 [Ge]3 [Ad][Ac][Ad] | [Ge]6 | .E3 .A3 | .c3 edc | .B3 [B,GB][B,FA][B,EG] | [B,DF]6 | %20
w: ||||||
 .[B,DF]3 .[DFB]3 | .d3 fed | [Ge]3 [Ad][Ac][Ad] | [Ge]6 |] %24
w: ||||
V:2
 .[E,E]3 .[E,E]3 | [E,E][E,E][E,E] .[E,E]3 | B,,[B,,B,][B,,B,] [B,,B,][B,,B,][B,,B,] | [E,B,]6 | %4
 [E,E][E,E][E,E] [E,E][E,E][E,E] | .[E,E]3 z3 | A,,A,,A,, B,,B,,B,, | [E,G,]6 | .[A,C]3 .[A,CE]3 | %9
 .[A,EA]3 [A,CA][A,=B,A][A,CA] | .[G,EG]3[K:bass] E,D,E, | B,,6 | .B,,3 .B,,3 | %13
 .[B,F]3 [B,A][B,G][B,F] | [B,,B,]3 [B,,B,][B,,B,][B,,B,] | [E,B,]6 | .[A,C]3 .[A,CE]3 | %17
 .[A,EA]3 [A,CA][A,=B,A][A,CA] | .[G,EG]3[K:bass] E,D,E, | B,,6 | .B,,3 .B,,3 | %21
 .[B,F]3 [B,A][B,G][B,F] | [B,,B,]3 [B,,B,][B,,B,][B,,B,] | [E,B,]6 |] %24
V:3
 x6 | x6 | x6 | x6 | x6 | z GE, .E,3 | x6 | x6 | x6 | x6 | x3[K:bass] x3 | x6 | x6 | x6 | x6 | x6 | %16
 x6 | x6 | x3[K:bass] x3 | x6 | x6 | x6 | x6 | x6 |] %24

